assets/1. F-P/Japanese symbol for beginner/Color/Japanese.Symbol.For.Beginner-color.svg

<svg width="100%" height="100%" viewBox="0 0 32 32" fill="none" xmlns="http://www.w3.org/2000/svg">
<g filter="url(#filter0_iii_18590_1970)">
<path d="M16.5993 29.8325L26.4693 24.1725C26.7793 23.9925 26.9693 23.6625 26.9693 23.3025V2.50251C26.9693 2.12251 26.5493 1.87251 26.2193 2.07251L16.0943 7.92033C16.0169 7.96499 15.9693 8.04752 15.9693 8.13682V29.8983C15.9693 29.9535 16.0141 29.9986 16.0692 29.9948C16.2504 29.9821 16.4391 29.9337 16.5993 29.8325Z" fill="url(#paint0_linear_18590_1970)"/>
</g>
<g filter="url(#filter1_iii_18590_1970)">
<path d="M15.9693 8.13681C15.9693 8.04751 15.9217 7.96499 15.8443 7.92032L5.7193 2.07249C5.38928 1.88248 4.9693 2.1225 4.9693 2.50248L4.97931 23.3025C4.97931 23.6625 5.16931 23.9925 5.47931 24.1725L15.3593 29.8325C15.5194 29.9228 15.693 29.976 15.8683 29.9922C15.9238 29.9973 15.9693 29.952 15.9693 29.8963V8.13681Z" fill="url(#paint1_linear_18590_1970)"/>
</g>
<defs>
<filter id="filter0_iii_18590_1970" x="15.7193" y="1.75183" width="11.5" height="28.2432" filterUnits="userSpaceOnUse" color-interpolation-filters="sRGB">
<feFlood flood-opacity="0" result="BackgroundImageFix"/>
<feBlend mode="normal" in="SourceGraphic" in2="BackgroundImageFix" result="shape"/>
<feColorMatrix in="SourceAlpha" type="matrix" values="0 0 0 0 0 0 0 0 0 0 0 0 0 0 0 0 0 0 127 0" result="hardAlpha"/>
<feOffset dx="0.25"/>
<feGaussianBlur stdDeviation="0.25"/>
<feComposite in2="hardAlpha" operator="arithmetic" k2="-1" k3="1"/>
<feColorMatrix type="matrix" values="0 0 0 0 0.239216 0 0 0 0 0.607843 0 0 0 0 0.235294 0 0 0 1 0"/>
<feBlend mode="normal" in2="shape" result="effect1_innerShadow_18590_1970"/>
<feColorMatrix in="SourceAlpha" type="matrix" values="0 0 0 0 0 0 0 0 0 0 0 0 0 0 0 0 0 0 127 0" result="hardAlpha"/>
<feOffset dx="-0.25"/>
<feGaussianBlur stdDeviation="0.25"/>
<feComposite in2="hardAlpha" operator="arithmetic" k2="-1" k3="1"/>
<feColorMatrix type="matrix" values="0 0 0 0 0.466667 0 0 0 0 0.996078 0 0 0 0 0.576471 0 0 0 1 0"/>
<feBlend mode="normal" in2="effect1_innerShadow_18590_1970" result="effect2_innerShadow_18590_1970"/>
<feColorMatrix in="SourceAlpha" type="matrix" values="0 0 0 0 0 0 0 0 0 0 0 0 0 0 0 0 0 0 127 0" result="hardAlpha"/>
<feOffset dy="-0.25"/>
<feGaussianBlur stdDeviation="0.25"/>
<feComposite in2="hardAlpha" operator="arithmetic" k2="-1" k3="1"/>
<feColorMatrix type="matrix" values="0 0 0 0 0.321569 0 0 0 0 0.501961 0 0 0 0 0.443137 0 0 0 1 0"/>
<feBlend mode="normal" in2="effect2_innerShadow_18590_1970" result="effect3_innerShadow_18590_1970"/>
</filter>
<filter id="filter1_iii_18590_1970" x="4.9693" y="1.75598" width="11.25" height="28.7366" filterUnits="userSpaceOnUse" color-interpolation-filters="sRGB">
<feFlood flood-opacity="0" result="BackgroundImageFix"/>
<feBlend mode="normal" in="SourceGraphic" in2="BackgroundImageFix" result="shape"/>
<feColorMatrix in="SourceAlpha" type="matrix" values="0 0 0 0 0 0 0 0 0 0 0 0 0 0 0 0 0 0 127 0" result="hardAlpha"/>
<feOffset dy="-0.25"/>
<feGaussianBlur stdDeviation="0.25"/>
<feComposite in2="hardAlpha" operator="arithmetic" k2="-1" k3="1"/>
<feColorMatrix type="matrix" values="0 0 0 0 0.890196 0 0 0 0 0.466667 0 0 0 0 0.317647 0 0 0 1 0"/>
<feBlend mode="normal" in2="shape" result="effect1_innerShadow_18590_1970"/>
<feColorMatrix in="SourceAlpha" type="matrix" values="0 0 0 0 0 0 0 0 0 0 0 0 0 0 0 0 0 0 127 0" result="hardAlpha"/>
<feOffset dy="0.5"/>
<feGaussianBlur stdDeviation="0.25"/>
<feComposite in2="hardAlpha" operator="arithmetic" k2="-1" k3="1"/>
<feColorMatrix type="matrix" values="0 0 0 0 1 0 0 0 0 0.94902 0 0 0 0 0.392157 0 0 0 1 0"/>
<feBlend mode="normal" in2="effect1_innerShadow_18590_1970" result="effect2_innerShadow_18590_1970"/>
<feColorMatrix in="SourceAlpha" type="matrix" values="0 0 0 0 0 0 0 0 0 0 0 0 0 0 0 0 0 0 127 0" result="hardAlpha"/>
<feOffset dx="0.25"/>
<feGaussianBlur stdDeviation="0.25"/>
<feComposite in2="hardAlpha" operator="arithmetic" k2="-1" k3="1"/>
<feColorMatrix type="matrix" values="0 0 0 0 0.760784 0 0 0 0 0.541176 0 0 0 0 0.207843 0 0 0 1 0"/>
<feBlend mode="normal" in2="effect2_innerShadow_18590_1970" result="effect3_innerShadow_18590_1970"/>
</filter>
<linearGradient id="paint0_linear_18590_1970" x1="25.1568" y1="3.25217" x2="21.4693" y2="27.3772" gradientUnits="userSpaceOnUse">
<stop offset="0.141369" stop-color="#53DB75"/>
<stop offset="1" stop-color="#51B56F"/>
</linearGradient>
<linearGradient id="paint1_linear_18590_1970" x1="15.9693" y1="6.43967" x2="15.9693" y2="29.9975" gradientUnits="userSpaceOnUse">
<stop stop-color="#FFD556"/>
<stop offset="1" stop-color="#FFC156"/>
</linearGradient>
</defs>
</svg>

<svg width="100%" height="100%" viewBox="0 0 32 32" xmlns="http://www.w3.org/2000/svg"><g filter="url(#a)"><path fill="url(#b)" d="m16.6 29.833 9.87-5.66c.31-.18.5-.51.5-.87v-20.8c0-.38-.42-.63-.75-.43L16.093 7.92a.25.25 0 0 0-.125.217v21.761c0 .055.045.1.1.097.181-.013.37-.061.53-.163"/></g><g filter="url(#c)"><path fill="url(#d)" d="M15.97 8.137a.25.25 0 0 0-.126-.217L5.72 2.072a.502.502 0 0 0-.75.43l.01 20.8c0 .36.19.69.5.87l9.88 5.66c.16.09.334.144.51.16a.094.094 0 0 0 .1-.096z"/></g><defs><linearGradient id="b" x1="25.157" x2="21.469" y1="3.252" y2="27.377" gradientUnits="userSpaceOnUse"><stop offset=".141" stop-color="#53DB75"/><stop offset="1" stop-color="#51B56F"/></linearGradient><linearGradient id="d" x1="15.969" x2="15.969" y1="6.44" y2="29.997" gradientUnits="userSpaceOnUse"><stop stop-color="#FFD556"/><stop offset="1" stop-color="#FFC156"/></linearGradient><filter id="a" width="11.5" height="28.243" x="15.719" y="1.752" color-interpolation-filters="sRGB" filterUnits="userSpaceOnUse"><feFlood flood-opacity="0" result="BackgroundImageFix"/><feBlend in="SourceGraphic" in2="BackgroundImageFix" result="shape"/><feColorMatrix in="SourceAlpha" result="hardAlpha" values="0 0 0 0 0 0 0 0 0 0 0 0 0 0 0 0 0 0 127 0"/><feOffset dx=".25"/><feGaussianBlur stdDeviation=".25"/><feComposite in2="hardAlpha" k2="-1" k3="1" operator="arithmetic"/><feColorMatrix values="0 0 0 0 0.239216 0 0 0 0 0.607843 0 0 0 0 0.235294 0 0 0 1 0"/><feBlend in2="shape" result="effect1_innerShadow_18590_1970"/><feColorMatrix in="SourceAlpha" result="hardAlpha" values="0 0 0 0 0 0 0 0 0 0 0 0 0 0 0 0 0 0 127 0"/><feOffset dx="-.25"/><feGaussianBlur stdDeviation=".25"/><feComposite in2="hardAlpha" k2="-1" k3="1" operator="arithmetic"/><feColorMatrix values="0 0 0 0 0.466667 0 0 0 0 0.996078 0 0 0 0 0.576471 0 0 0 1 0"/><feBlend in2="effect1_innerShadow_18590_1970" result="effect2_innerShadow_18590_1970"/><feColorMatrix in="SourceAlpha" result="hardAlpha" values="0 0 0 0 0 0 0 0 0 0 0 0 0 0 0 0 0 0 127 0"/><feOffset dy="-.25"/><feGaussianBlur stdDeviation=".25"/><feComposite in2="hardAlpha" k2="-1" k3="1" operator="arithmetic"/><feColorMatrix values="0 0 0 0 0.321569 0 0 0 0 0.501961 0 0 0 0 0.443137 0 0 0 1 0"/><feBlend in2="effect2_innerShadow_18590_1970" result="effect3_innerShadow_18590_1970"/></filter><filter id="c" width="11.25" height="28.737" x="4.969" y="1.756" color-interpolation-filters="sRGB" filterUnits="userSpaceOnUse"><feFlood flood-opacity="0" result="BackgroundImageFix"/><feBlend in="SourceGraphic" in2="BackgroundImageFix" result="shape"/><feColorMatrix in="SourceAlpha" result="hardAlpha" values="0 0 0 0 0 0 0 0 0 0 0 0 0 0 0 0 0 0 127 0"/><feOffset dy="-.25"/><feGaussianBlur stdDeviation=".25"/><feComposite in2="hardAlpha" k2="-1" k3="1" operator="arithmetic"/><feColorMatrix values="0 0 0 0 0.890196 0 0 0 0 0.466667 0 0 0 0 0.317647 0 0 0 1 0"/><feBlend in2="shape" result="effect1_innerShadow_18590_1970"/><feColorMatrix in="SourceAlpha" result="hardAlpha" values="0 0 0 0 0 0 0 0 0 0 0 0 0 0 0 0 0 0 127 0"/><feOffset dy=".5"/><feGaussianBlur stdDeviation=".25"/><feComposite in2="hardAlpha" k2="-1" k3="1" operator="arithmetic"/><feColorMatrix values="0 0 0 0 1 0 0 0 0 0.94902 0 0 0 0 0.392157 0 0 0 1 0"/><feBlend in2="effect1_innerShadow_18590_1970" result="effect2_innerShadow_18590_1970"/><feColorMatrix in="SourceAlpha" result="hardAlpha" values="0 0 0 0 0 0 0 0 0 0 0 0 0 0 0 0 0 0 127 0"/><feOffset dx=".25"/><feGaussianBlur stdDeviation=".25"/><feComposite in2="hardAlpha" k2="-1" k3="1" operator="arithmetic"/><feColorMatrix values="0 0 0 0 0.760784 0 0 0 0 0.541176 0 0 0 0 0.207843 0 0 0 1 0"/><feBlend in2="effect2_innerShadow_18590_1970" result="effect3_innerShadow_18590_1970"/></filter></defs></svg>
